TF2/xygaus.svg

<svg xmlns="http://www.w3.org/2000/svg" viewBox="0 0 1200 800" preserveAspectRatio="none" width="1200" height="800">
 <path d="M0,0H1200V800H0Z" style="fill: white;"></path>
 <g>
  <g transform="translate(120,80)">
   <path d="M0,0H960V640H0Z" style="fill: white; stroke: black; stroke-width: 1;"></path>
   <svg x="0" y="0" overflow="hidden" width="960" height="640" viewBox="0 0 960 640">
    <g>
     <path d="M464,222l5,2l27,4l32,10l13,7l19,10l17,12l15,17l4,4l18,21l9,22l1,2l12,19l8,21l4,22l2,21l-1,21l-5,22l-9,21l-11,18l-2,3l-15,22l-15,14l-7,7l-25,19l-4,2l-28,17l-10,5l-22,10l-32,10l-3,1l-29,8l-32,6l-32,3l-32,1l-32,-1l-32,-3l-32,-5l-31,-9h-1l-32,-10l-24,-11l-8,-4l-30,-18l-2,-1l-27,-20l-5,-5l-17,-16l-15,-21v-1l-14,-21l-8,-21l-4,-22l-2,-21l2,-21l4,-22l9,-21l13,-20v-1l16,-22l16,-15l6,-6l26,-19l4,-2l28,-17l10,-5l22,-10l32,-10l4,-1l28,-8l32,-5l32,-3l32,-1l32,1l32,3l32,5z" style="fill: none; stroke: red; stroke-width: 2;"></path>
     <path d="M704,160l16,9l13,12l1,22l-14,14l-11,7l-21,10l-32,1l-23,-11l-9,-7l-14,-14l3,-22l11,-10l18,-11l14,-7h32z" style="fill: none; stroke: red; stroke-width: 2;"></path>
     <path d="M432,243l32,1l8,1l24,2l32,9l18,11l14,12l11,9l14,21l4,22l2,21l1,9l3,12l5,22l1,21l-2,21l-6,22l-1,1l-8,20l-15,21l-9,9l-12,13l-20,15l-9,6l-23,14l-18,7l-14,7l-32,10l-25,5l-7,1l-32,5l-32,1l-32,-1l-32,-4l-9,-2l-23,-5l-32,-10l-17,-7l-15,-6l-25,-15l-7,-4l-22,-17l-10,-10l-11,-12l-15,-21l-6,-15l-3,-6l-7,-22l-2,-21l2,-21l7,-22l3,-5l7,-16l15,-21l10,-11l11,-11l21,-16l8,-5l24,-14l18,-7l14,-6l32,-10l29,-6h3l32,-5l32,-1l32,1l32,3z" style="fill: none; stroke: red; stroke-width: 2;"></path>
     <path d="M711,181l2,22l-25,16h-32l-23,-16l2,-22l21,-14h32z" style="fill: none; stroke: red; stroke-width: 2;"></path>
     <path d="M432,255l32,-3l32,2l29,13l3,1l28,20l4,8l11,13l5,22l-2,21l-5,21l-1,22v21l-2,21l-6,18l-1,4l-11,21l-18,21l-2,2l-24,20l-8,5l-29,16l-3,1l-32,13l-32,7h-1l-31,5l-32,2l-32,-2l-32,-4l-1,-1l-31,-7l-32,-12l-5,-2l-27,-14l-11,-7l-21,-18l-4,-4l-18,-21l-10,-20l-1,-1l-7,-22l-2,-21l2,-21l8,-22l11,-21l18,-21l3,-3l23,-19l9,-6l29,-15l3,-1l32,-12l32,-8h5l27,-4l32,-2l32,1l32,-1z" style="fill: none; stroke: red; stroke-width: 2;"></path>
     <path d="M694,181l2,22l-8,5l-32,-1l-6,-4l2,-22l4,-2l32,-2z" style="fill: none; stroke: red; stroke-width: 2;"></path>
     <path d="M464,259l32,3l12,5l20,7l19,14l12,21l1,9l3,13l-3,13l-1,8l-8,21l-7,22l-2,21l-3,21l-8,22l-3,5l-10,16l-21,21l-1,1l-31,21h-1l-32,15l-22,6l-10,3l-32,5l-32,2l-32,-1l-32,-6l-12,-3l-20,-6l-32,-13l-3,-2l-29,-19l-3,-3l-21,-21l-8,-13l-5,-8l-8,-22l-3,-21l3,-21l8,-22l5,-7l9,-14l21,-21l2,-2l31,-20h1l32,-14l24,-7l8,-2l32,-5l32,-2h32l32,-5l26,-7l6,-2z" style="fill: none; stroke: red; stroke-width: 2;"></path>
     <path d="M464,266l9,1l23,1l32,12l11,8l15,21l2,22l-5,21l-13,21l-10,16l-5,6l-4,21l-4,21l-8,22l-11,14l-5,7l-25,21l-2,2l-32,17l-9,3l-23,7l-32,6l-32,2l-32,-1l-32,-6l-25,-8l-7,-3l-32,-16l-4,-3l-25,-21l-3,-4l-13,-17l-8,-22l-3,-21l3,-21l9,-22l12,-16l4,-5l26,-21l2,-2l32,-16l10,-4l22,-7l32,-6l32,-2h32l18,-6l14,-4l32,-13l28,-4z" style="fill: none; stroke: red; stroke-width: 2;"></path>
     <path d="M408,288l24,-11l32,-7l32,1l32,15l3,2l18,21l3,22l-8,21l-16,19l-4,2l-19,22l-7,21l-2,7l-3,14l-10,22l-18,21l-1,1l-31,20l-1,1l-32,13l-32,7l-16,1l-16,1l-18,-1l-14,-1l-32,-7l-32,-12l-3,-2l-29,-19l-3,-2l-18,-21l-10,-22l-1,-6l-2,-15l2,-13l1,-8l11,-22l18,-21l2,-1l31,-20l1,-1l32,-12l32,-7l26,-2h6l32,-2l32,-12z" style="fill: none; stroke: red; stroke-width: 2;"></path>
     <path d="M464,273l32,1l27,14l5,4l16,17l3,22l-10,21l-9,10l-15,11l-17,16l-11,6l-8,21l-5,21l-8,15l-4,7l-22,21l-6,4l-32,15l-8,2l-24,6l-32,3l-32,-2l-27,-7l-5,-1l-32,-15l-8,-5l-22,-21l-2,-3l-10,-19l-3,-21l4,-21l9,-17l3,-5l23,-21l6,-4l32,-15l9,-2l23,-6l32,-2l32,-2l20,-12l12,-5l19,-16l13,-6z" style="fill: none; stroke: red; stroke-width: 2;"></path>
     <path d="M517,288l11,10l11,11l3,22l-13,21l-1,2l-26,19l-6,5l-32,16l-1,1l-8,21l-5,21l-14,22l-4,3l-26,18l-6,3l-32,10l-32,3l-32,-3l-32,-9l-8,-4l-24,-16l-6,-5l-14,-22l-4,-21l5,-21l14,-22l5,-4l26,-17l6,-3l32,-9l32,-3l32,-1l9,-5l23,-14l3,-8l28,-21l1,-1l32,-11l32,2z" style="fill: none; stroke: red; stroke-width: 2;"></path>
     <path d="M440,288l24,-9l32,2l14,7l18,15l6,6l3,22l-9,14l-5,7l-27,19l-12,2l-20,10l-29,12l-2,21l-1,4l-5,17l-19,22l-8,5l-32,13l-20,3l-12,1l-13,-1l-19,-2l-32,-13l-10,-6l-19,-22l-3,-11l-2,-10l2,-9l4,-12l19,-22l9,-5l32,-13l27,-3l5,-1l15,1l17,1l3,-1l29,-18v-3l9,-22l23,-17z" style="fill: none; stroke: red; stroke-width: 2;"></path>
     <path d="M372,373l28,18l2,4l5,21l-7,21l-31,22h-1l-32,5l-32,-4l-3,-1l-29,-20l-2,-2l-6,-21l7,-21l1,-2l31,-20h1l32,-4l32,4z" style="fill: none; stroke: red; stroke-width: 2;"></path>
     <path d="M528,309h1l3,22l-4,6l-11,15l-21,15l-32,6l-32,-2l-24,-19l-1,-21l9,-22l16,-12l17,-9l15,-5l32,2l7,3z" style="fill: none; stroke: red; stroke-width: 2;"></path>
     <path d="M344,395l24,16l3,5l-3,6l-21,15l-11,3l-12,-3l-20,-13l-4,-8l4,-8l23,-13l9,-2z" style="fill: none; stroke: red; stroke-width: 2;"></path>
     <path d="M496,288l28,21l3,22l-16,21l-15,11l-32,6l-32,-9l-10,-8l-8,-21l8,-22l10,-7l26,-14l6,-2l32,2z" style="fill: none; stroke: red; stroke-width: 2;"></path>
     <path d="M496,291l24,18l3,22l-17,21l-10,7l-32,5l-30,-12l-2,-2l-12,-19l9,-22l3,-2l32,-18z" style="fill: none; stroke: red; stroke-width: 2;"></path>
     <path d="M496,294l20,15l3,22l-19,21l-4,3l-32,5l-19,-8l-13,-13l-5,-8l5,-14l2,-8l30,-17z" style="fill: none; stroke: red; stroke-width: 2;"></path>
     <path d="M512,309l3,22l-19,19l-10,2l-22,4l-9,-4l-22,-21l6,-22l25,-14l32,2z" style="fill: none; stroke: red; stroke-width: 2;"></path>
     <path d="M508,309l3,22l-15,15l-32,5l-26,-20l6,-22l20,-11l32,2z" style="fill: none; stroke: red; stroke-width: 2;"></path>
     <path d="M504,309l4,22l-12,11l-32,5l-21,-16l7,-22l14,-8l32,2z" style="fill: none; stroke: red; stroke-width: 2;"></path>
     <path d="M500,309l4,22l-8,7l-32,5l-16,-12l7,-22l9,-5l32,2z" style="fill: none; stroke: red; stroke-width: 2;"></path>
     <path d="M496,309l4,22l-4,3l-32,5l-10,-8l6,-22l4,-2l32,2z" style="fill: none; stroke: red; stroke-width: 2;"></path>
     <path d="M494,331l-30,4l-5,-4l5,-19z" style="fill: none; stroke: red; stroke-width: 2;"></path>
    </g>
   </svg>
   <g>
    <g transform="translate(0,640)">
     <path d="M0,0h960M0,-24v24m24,-12v12m24,-12v12m24,-12v12m24,-24v24m24,-12v12m24,-12v12m24,-12v12m24,-24v24m24,-12v12m24,-12v12m24,-12v12m24,-24v24m24,-12v12m24,-12v12m24,-12v12m24,-24v24m24,-12v12m24,-12v12m24,-12v12m24,-24v24m24,-12v12m24,-12v12m24,-12v12m24,-24v24m24,-12v12m24,-12v12m24,-12v12m24,-24v24m24,-12v12m24,-12v12m24,-12v12m24,-24v24m24,-12v12m24,-12v12m24,-12v12m24,-24v24m24,-12v12m24,-12v12m24,-12v12m24,-24v24" style="stroke: black; stroke-width: 1;"></path>
     <g font-family="Arial" font-size="28" space="preserve" fill="black" text-anchor="middle">
      <text dy=".8em" transform="translate(0,6)">
       -10
      </text>
      <text dy=".8em" transform="translate(96,6)">
       -8
      </text>
      <text dy=".8em" transform="translate(192,6)">
       -6
      </text>
      <text dy=".8em" transform="translate(288,6)">
       -4
      </text>
      <text dy=".8em" transform="translate(384,6)">
       -2
      </text>
      <text dy=".8em" transform="translate(480,6)">
       0
      </text>
      <text dy=".8em" transform="translate(576,6)">
       2
      </text>
      <text dy=".8em" transform="translate(672,6)">
       4
      </text>
      <text dy=".8em" transform="translate(768,6)">
       6
      </text>
      <text dy=".8em" transform="translate(864,6)">
       8
      </text>
      <text dy=".8em" transform="translate(960,6)">
       10
      </text>
     </g>
    </g>
    <g>
     <path d="M0,0v640M36,640h-36m18,-16h-18m18,-16h-18m18,-16h-18m36,-16h-36m18,-16h-18m18,-16h-18m18,-16h-18m36,-16h-36m18,-16h-18m18,-16h-18m18,-16h-18m36,-16h-36m18,-16h-18m18,-16h-18m18,-16h-18m36,-16h-36m18,-16h-18m18,-16h-18m18,-16h-18m36,-16h-36m18,-16h-18m18,-16h-18m18,-16h-18m36,-16h-36m18,-16h-18m18,-16h-18m18,-16h-18m36,-16h-36m18,-16h-18m18,-16h-18m18,-16h-18m36,-16h-36m18,-16h-18m18,-16h-18m18,-16h-18m36,-16h-36m18,-16h-18m18,-16h-18m18,-16h-18m36,-16h-36" style="stroke: black; stroke-width: 1;"></path>
     <g font-family="Arial" font-size="28" space="preserve" fill="black" text-anchor="end">
      <text dy=".4em" transform="translate(-4,640)">
       -10
      </text>
      <text dy=".4em" transform="translate(-4,576)">
       -8
      </text>
      <text dy=".4em" transform="translate(-4,512)">
       -6
      </text>
      <text dy=".4em" transform="translate(-4,448)">
       -4
      </text>
      <text dy=".4em" transform="translate(-4,384)">
       -2
      </text>
      <text dy=".4em" transform="translate(-4,320)">
       0
      </text>
      <text dy=".4em" transform="translate(-4,256)">
       2
      </text>
      <text dy=".4em" transform="translate(-4,192)">
       4
      </text>
      <text dy=".4em" transform="translate(-4,128)">
       6
      </text>
      <text dy=".4em" transform="translate(-4,64)">
       8
      </text>
      <text dy=".4em" transform="translate(-4)">
       10
      </text>
     </g>
    </g>
   </g>
  </g>
  <g transform="translate(120,4)" font-family="Arial" font-size="40" space="preserve">
   <text fill="black" text-anchor="middle" dy=".8em" transform="translate(480)">
    xygaus(0)+xygaus(5)+xygaus(10)
   </text>
  </g>
 </g>
</svg>

<svg xmlns="http://www.w3.org/2000/svg" viewBox="0 0 1200 800" preserveAspectRatio="none" width="1200" height="800">
 <path d="M0,0H1200V800H0Z" style="fill: white;"></path>
 <g>
  <g transform="translate(120,80)">
   <path d="M0,0H960V640H0Z" style="fill: white; stroke: black; stroke-width: 1;"></path>
   <svg x="0" y="0" overflow="hidden" width="960" height="640" viewBox="0 0 960 640">
    <g>
     <path d="M464,222l5,2l27,4l32,10l13,7l19,10l17,12l15,17l4,4l18,21l9,22l1,2l12,19l8,21l4,22l2,21l-1,21l-5,22l-9,21l-11,18l-2,3l-15,22l-15,14l-7,7l-25,19l-4,2l-28,17l-10,5l-22,10l-32,10l-3,1l-29,8l-32,6l-32,3l-32,1l-32,-1l-32,-3l-32,-5l-31,-9h-1l-32,-10l-24,-11l-8,-4l-30,-18l-2,-1l-27,-20l-5,-5l-17,-16l-15,-21v-1l-14,-21l-8,-21l-4,-22l-2,-21l2,-21l4,-22l9,-21l13,-20v-1l16,-22l16,-15l6,-6l26,-19l4,-2l28,-17l10,-5l22,-10l32,-10l4,-1l28,-8l32,-5l32,-3l32,-1l32,1l32,3l32,5z" style="fill: none; stroke: red; stroke-width: 2;"></path>
     <path d="M704,160l16,9l13,12l1,22l-14,14l-11,7l-21,10l-32,1l-23,-11l-9,-7l-14,-14l3,-22l11,-10l18,-11l14,-7h32z" style="fill: none; stroke: red; stroke-width: 2;"></path>
     <path d="M432,243l32,1l8,1l24,2l32,9l18,11l14,12l11,9l14,21l4,22l2,21l1,9l3,12l5,22l1,21l-2,21l-6,22l-1,1l-8,20l-15,21l-9,9l-12,13l-20,15l-9,6l-23,14l-18,7l-14,7l-32,10l-25,5l-7,1l-32,5l-32,1l-32,-1l-32,-4l-9,-2l-23,-5l-32,-10l-17,-7l-15,-6l-25,-15l-7,-4l-22,-17l-10,-10l-11,-12l-15,-21l-6,-15l-3,-6l-7,-22l-2,-21l2,-21l7,-22l3,-5l7,-16l15,-21l10,-11l11,-11l21,-16l8,-5l24,-14l18,-7l14,-6l32,-10l29,-6h3l32,-5l32,-1l32,1l32,3z" style="fill: none; stroke: red; stroke-width: 2;"></path>
     <path d="M711,181l2,22l-25,16h-32l-23,-16l2,-22l21,-14h32z" style="fill: none; stroke: red; stroke-width: 2;"></path>
     <path d="M432,255l32,-3l32,2l29,13l3,1l28,20l4,8l11,13l5,22l-2,21l-5,21l-1,22v21l-2,21l-6,18l-1,4l-11,21l-18,21l-2,2l-24,20l-8,5l-29,16l-3,1l-32,13l-32,7h-1l-31,5l-32,2l-32,-2l-32,-4l-1,-1l-31,-7l-32,-12l-5,-2l-27,-14l-11,-7l-21,-18l-4,-4l-18,-21l-10,-20l-1,-1l-7,-22l-2,-21l2,-21l8,-22l11,-21l18,-21l3,-3l23,-19l9,-6l29,-15l3,-1l32,-12l32,-8h5l27,-4l32,-2l32,1l32,-1z" style="fill: none; stroke: red; stroke-width: 2;"></path>
     <path d="M694,181l2,22l-8,5l-32,-1l-6,-4l2,-22l4,-2l32,-2z" style="fill: none; stroke: red; stroke-width: 2;"></path>
     <path d="M464,259l32,3l12,5l20,7l19,14l12,21l1,9l3,13l-3,13l-1,8l-8,21l-7,22l-2,21l-3,21l-8,22l-3,5l-10,16l-21,21l-1,1l-31,21h-1l-32,15l-22,6l-10,3l-32,5l-32,2l-32,-1l-32,-6l-12,-3l-20,-6l-32,-13l-3,-2l-29,-19l-3,-3l-21,-21l-8,-13l-5,-8l-8,-22l-3,-21l3,-21l8,-22l5,-7l9,-14l21,-21l2,-2l31,-20h1l32,-14l24,-7l8,-2l32,-5l32,-2h32l32,-5l26,-7l6,-2z" style="fill: none; stroke: red; stroke-width: 2;"></path>
     <path d="M464,266l9,1l23,1l32,12l11,8l15,21l2,22l-5,21l-13,21l-10,16l-5,6l-4,21l-4,21l-8,22l-11,14l-5,7l-25,21l-2,2l-32,17l-9,3l-23,7l-32,6l-32,2l-32,-1l-32,-6l-25,-8l-7,-3l-32,-16l-4,-3l-25,-21l-3,-4l-13,-17l-8,-22l-3,-21l3,-21l9,-22l12,-16l4,-5l26,-21l2,-2l32,-16l10,-4l22,-7l32,-6l32,-2h32l18,-6l14,-4l32,-13l28,-4z" style="fill: none; stroke: red; stroke-width: 2;"></path>
     <path d="M408,288l24,-11l32,-7l32,1l32,15l3,2l18,21l3,22l-8,21l-16,19l-4,2l-19,22l-7,21l-2,7l-3,14l-10,22l-18,21l-1,1l-31,20l-1,1l-32,13l-32,7l-16,1l-16,1l-18,-1l-14,-1l-32,-7l-32,-12l-3,-2l-29,-19l-3,-2l-18,-21l-10,-22l-1,-6l-2,-15l2,-13l1,-8l11,-22l18,-21l2,-1l31,-20l1,-1l32,-12l32,-7l26,-2h6l32,-2l32,-12z" style="fill: none; stroke: red; stroke-width: 2;"></path>
     <path d="M464,273l32,1l27,14l5,4l16,17l3,22l-10,21l-9,10l-15,11l-17,16l-11,6l-8,21l-5,21l-8,15l-4,7l-22,21l-6,4l-32,15l-8,2l-24,6l-32,3l-32,-2l-27,-7l-5,-1l-32,-15l-8,-5l-22,-21l-2,-3l-10,-19l-3,-21l4,-21l9,-17l3,-5l23,-21l6,-4l32,-15l9,-2l23,-6l32,-2l32,-2l20,-12l12,-5l19,-16l13,-6z" style="fill: none; stroke: red; stroke-width: 2;"></path>
     <path d="M517,288l11,10l11,11l3,22l-13,21l-1,2l-26,19l-6,5l-32,16l-1,1l-8,21l-5,21l-14,22l-4,3l-26,18l-6,3l-32,10l-32,3l-32,-3l-32,-9l-8,-4l-24,-16l-6,-5l-14,-22l-4,-21l5,-21l14,-22l5,-4l26,-17l6,-3l32,-9l32,-3l32,-1l9,-5l23,-14l3,-8l28,-21l1,-1l32,-11l32,2z" style="fill: none; stroke: red; stroke-width: 2;"></path>
     <path d="M440,288l24,-9l32,2l14,7l18,15l6,6l3,22l-9,14l-5,7l-27,19l-12,2l-20,10l-29,12l-2,21l-1,4l-5,17l-19,22l-8,5l-32,13l-20,3l-12,1l-13,-1l-19,-2l-32,-13l-10,-6l-19,-22l-3,-11l-2,-10l2,-9l4,-12l19,-22l9,-5l32,-13l27,-3l5,-1l15,1l17,1l3,-1l29,-18v-3l9,-22l23,-17z" style="fill: none; stroke: red; stroke-width: 2;"></path>
     <path d="M372,373l28,18l2,4l5,21l-7,21l-31,22h-1l-32,5l-32,-4l-3,-1l-29,-20l-2,-2l-6,-21l7,-21l1,-2l31,-20h1l32,-4l32,4z" style="fill: none; stroke: red; stroke-width: 2;"></path>
     <path d="M528,309h1l3,22l-4,6l-11,15l-21,15l-32,6l-32,-2l-24,-19l-1,-21l9,-22l16,-12l17,-9l15,-5l32,2l7,3z" style="fill: none; stroke: red; stroke-width: 2;"></path>
     <path d="M344,395l24,16l3,5l-3,6l-21,15l-11,3l-12,-3l-20,-13l-4,-8l4,-8l23,-13l9,-2z" style="fill: none; stroke: red; stroke-width: 2;"></path>
     <path d="M496,288l28,21l3,22l-16,21l-15,11l-32,6l-32,-9l-10,-8l-8,-21l8,-22l10,-7l26,-14l6,-2l32,2z" style="fill: none; stroke: red; stroke-width: 2;"></path>
     <path d="M496,291l24,18l3,22l-17,21l-10,7l-32,5l-30,-12l-2,-2l-12,-19l9,-22l3,-2l32,-18z" style="fill: none; stroke: red; stroke-width: 2;"></path>
     <path d="M496,294l20,15l3,22l-19,21l-4,3l-32,5l-19,-8l-13,-13l-5,-8l5,-14l2,-8l30,-17z" style="fill: none; stroke: red; stroke-width: 2;"></path>
     <path d="M512,309l3,22l-19,19l-10,2l-22,4l-9,-4l-22,-21l6,-22l25,-14l32,2z" style="fill: none; stroke: red; stroke-width: 2;"></path>
     <path d="M508,309l3,22l-15,15l-32,5l-26,-20l6,-22l20,-11l32,2z" style="fill: none; stroke: red; stroke-width: 2;"></path>
     <path d="M504,309l4,22l-12,11l-32,5l-21,-16l7,-22l14,-8l32,2z" style="fill: none; stroke: red; stroke-width: 2;"></path>
     <path d="M500,309l4,22l-8,7l-32,5l-16,-12l7,-22l9,-5l32,2z" style="fill: none; stroke: red; stroke-width: 2;"></path>
     <path d="M496,309l4,22l-4,3l-32,5l-10,-8l6,-22l4,-2l32,2z" style="fill: none; stroke: red; stroke-width: 2;"></path>
     <path d="M494,331l-30,4l-5,-4l5,-19z" style="fill: none; stroke: red; stroke-width: 2;"></path>
    </g>
   </svg>
   <g>
    <g transform="translate(0,640)">
     <path d="M0,0h960M0,-24V0M24,-12V0M48,-12V0M72,-12V0M96,-24V0M120,-12V0M144,-12V0M168,-12V0M192,-24V0M216,-12V0M240,-12V0M264,-12V0M288,-24V0M312,-12V0M336,-12V0M360,-12V0M384,-24V0M408,-12V0M432,-12V0M456,-12V0M480,-24V0M504,-12V0M528,-12V0M552,-12V0M576,-24V0M600,-12V0M624,-12V0M648,-12V0M672,-24V0M696,-12V0M720,-12V0M744,-12V0M768,-24V0M792,-12V0M816,-12V0M840,-12V0M864,-24V0M888,-12V0M912,-12V0M936,-12V0M960,-24V0" style="stroke: black; stroke-width: 1;"></path>
     <g font-family="Arial" font-size="28" space="preserve" fill="black" text-anchor="middle">
      <text dy=".8em" transform="translate(0,6)">
       -10
      </text>
      <text dy=".8em" transform="translate(96,6)">
       -8
      </text>
      <text dy=".8em" transform="translate(192,6)">
       -6
      </text>
      <text dy=".8em" transform="translate(288,6)">
       -4
      </text>
      <text dy=".8em" transform="translate(384,6)">
       -2
      </text>
      <text dy=".8em" transform="translate(480,6)">
       0
      </text>
      <text dy=".8em" transform="translate(576,6)">
       2
      </text>
      <text dy=".8em" transform="translate(672,6)">
       4
      </text>
      <text dy=".8em" transform="translate(768,6)">
       6
      </text>
      <text dy=".8em" transform="translate(864,6)">
       8
      </text>
      <text dy=".8em" transform="translate(960,6)">
       10
      </text>
     </g>
    </g>
    <g>
     <path d="M0,0v640M36,640H0M18,624H0M18,608H0M18,592H0M36,576H0M18,560H0M18,544H0M18,528H0M36,512H0M18,496H0M18,480H0M18,464H0M36,448H0M18,432H0M18,416H0M18,400H0M36,384H0M18,368H0M18,352H0M18,336H0M36,320H0M18,304H0M18,288H0M18,272H0M36,256H0M18,240H0M18,224H0M18,208H0M36,192H0M18,176H0M18,160H0M18,144H0M36,128H0M18,112H0M18,96H0M18,80H0M36,64H0M18,48H0M18,32H0M18,16H0M36,0H0" style="stroke: black; stroke-width: 1;"></path>
     <g font-family="Arial" font-size="28" space="preserve" fill="black" text-anchor="end">
      <text dy=".4em" transform="translate(-4,640)">
       -10
      </text>
      <text dy=".4em" transform="translate(-4,576)">
       -8
      </text>
      <text dy=".4em" transform="translate(-4,512)">
       -6
      </text>
      <text dy=".4em" transform="translate(-4,448)">
       -4
      </text>
      <text dy=".4em" transform="translate(-4,384)">
       -2
      </text>
      <text dy=".4em" transform="translate(-4,320)">
       0
      </text>
      <text dy=".4em" transform="translate(-4,256)">
       2
      </text>
      <text dy=".4em" transform="translate(-4,192)">
       4
      </text>
      <text dy=".4em" transform="translate(-4,128)">
       6
      </text>
      <text dy=".4em" transform="translate(-4,64)">
       8
      </text>
      <text dy=".4em" transform="translate(-4)">
       10
      </text>
     </g>
    </g>
   </g>
  </g>
  <g transform="translate(120,4)" font-family="Arial" font-size="40" space="preserve">
   <text fill="black" text-anchor="middle" dy=".8em" transform="translate(480)">
    xygaus(0)+xygaus(5)+xygaus(10)
   </text>
  </g>
 </g>
</svg>
